X:1
T:Title
%%score { 1 | 2 }
L:1/8
Q:1/4=120
M:3/4
K:E
V:1 treble nm="Grand Piano"
V:2 bass 
V:1
 G2 G2 G2 | G4 EG | [GB]2 [GB]2 [GB]2 | [GB]6 | c2 e2 c2 | [GB]2 [EG]2 [GB]2 | [Ac]2 [GB]2 [EG]2 | %7
w: Chas.~H.~Gabriel * *|||||||
 [DF]4 z2 | G2 G2 G2 | G2 E2 G2 | [GB]2 [GB]2 [GB]2 | [GB]6 | B2 F2 B2 | c2 d2 e2 | d2 d2 c2 | %15
w: ||||||||
 [DB]4 z2 | [Ge]2 [Ge]2 [Ge]2 | d6 | c3 c c2 | [EGB]4 z2 | [DFB]2 [B,DF]2 [Dc]2 | %21
w: ||||||
 [DB]2 [DF]2 [Dc]2 | B2 E2 c2 | B4 z2 | [Ge]2 [Ge]2 [Ge]2 | d6 | c3 c c2 | [GB]4 z2 | c2 c2 d2 | %29
w: ||||||||
 e2 B2 A2 | G2 G2 [DF]2 | E4 z2 |] %32
w: |||
V:2
 [E,B,E]2 [E,B,E]2 [E,B,E]2 | [E,B,E]4 [E,G,][E,B,E] | [E,E]2 [E,E]2 [E,E]2 | [E,E]6 | %4
 [A,EA]2 [A,CA]2 [A,EA]2 | [E,E]2 [E,B,]2 [E,E]2 | [E,E]2 [E,E]2 [E,B,]2 | [B,,B,]4 z2 | %8
 [E,B,E]2 [E,B,E]2 [E,B,E]2 | [E,B,E]2 [E,G,]2 [E,B,E]2 | [E,E]2 [E,E]2 [E,E]2 | [E,E]6 | %12
 [F,DF]2 [F,B,D]2 [F,B,D]2 | [F,^A,F]2 [F,B,F]2 [A,CF]2 | [B,F]2 [B,F]2[K:bass] [F,^A,E]2 | %15
 [B,,B,]4 z2 | [E,B,]2 [E,B,]2 [C,C]2 | [G,^B,F]6 | [A,CE]3 [A,CE] [A,EA]2 | E,4 z2 | %20
 B,,2 B,,2 [B,,A,]2 | [B,,F,]2 [B,,B,]2 [B,,A,]2 | [E,G,E]2 [E,G,]2 [E,A,E]2 | [E,G,E]4 z2 | %24
 [E,B,]2 [E,B,]2 [C,C]2 | [G,^B,F]6 | [A,CE]3 [A,CE] [A,EA]2 | [E,E]4 z2 | %28
 [A,EA]2 [A,EA]2 [A,B,F]2 | [G,B,E]2 [G,B,E]2 [A,CF]2 | [B,E]2 [B,E]2 [B,,A,]2 | [E,G,]4 z2 |] %32

